-----BEGIN PGP PUBLIC KEY BLOCK-----

mQINBGpBxf8BEADORbcTONq9PJDQExv3ntxxXZrta/hwxwlz3ElOXr/va00m5jl/
CT4AnwwIaocAfiwWR5ZFLFxOwhg4IMWKlx3NVMm6dCMrj9gRAs6gSJNORgMhDCK2
zzhP7sAKSDgWrAGIvwGnD4/1oDik6bc8OT//sNcD8JWnbxQXJsUAeK6yLml2/x+G
08U4rijKZXpMG5vLphR9YIj1Wq/lhijoKtdF9ikxqO80O+74c2O4y1KvcZqtpzNk
bihACivysVX9LUFlUMHnrxEA5dll5+GQ3KB2LpDcoOaqu1JWRYZGcFhuCGzKHiWK
3va4Vkb7JJ/03chnmrxFUs73ra2ERfz7j5PkZLxM3y3sgtqPgwcjpHlVs8t4MFgl
Rk5xn8AjwOFrvhG/aeDI3ZkJk5kMYf52YU5emrhMY3Xtt9SzYEw8uxWsEsaEWFiy
P5qDT/5QheVNO3d/p1CCfj2nqCcjz6IZyGgpO6IJzWrCmpammrwnVvqVbxqR0nfy
UZ+JQZ3Y7nqc4W9XbOTTS3xfHlzqHrz9o6KCtrg7QdG7fGstzFoo0CfeSb9ls8LR
IPyXVfWqiFxJnd4SoLz0rDwh8VnEAV8t697dzqGU7uY5LXGVxh2htmyocjCV3te1
cNLx2FVi/gkmYOsRG3ClQn+66kvOuRpII8XWI1B7IobzM4ovygmhz91I1QARAQAB
tEBZZWxsb3dTcGhlcmUgUmVsZWFzZSBTaWduaW5nICgyMDI2KSA8cmVsZWFzZUB5
ZWxsb3dzcGhlcmUubG9jYWw+iQJUBBMBCgA+FiEEaojTKdz2GkTvaRAbAZ7DKDtF
FGkFAmpBxf8CGwMFCQPCZwAFCwkIBwIGFQoJCAsCBBYCAwECHgECF4AACgkQAZ7D
KDtFFGm0fQ//Yr78Xe3Lyr+bXJFAt+gMAOC8nmwzdKSoB4yLsB2hRU1SkhDAhxXT
QHPDhrUGcQW/AkvPioSomTC44G4WR0fhBiQMsOFlOUaaIwnjYbK3JRLhlpkmC52U
zw7i1LpUS9JLTtchly2TAOj9DjtolkzT0SKLF08ndbfxj58/HuH2+9jIZLAmvZ73
V8R4F4DaWpxp8WGEd28nDIEyEv11GB/ZB3ZqIPHPqER+05m7EelHPEmrtWSEvNjr
znC+G3ENwu2f+yQZAw3kO8nAqjj2B/CSwPuMhBKSdPw0QjT+G7IKb6gsAX4p5Jrw
Pp64AwvBMczsULRd9ZAJRQkVa5ZceFziFX3hbBFIM7BXhbSOPavIYXiZVNACpiF6
01mITI5dIc6Rn/YFGBAsvH419F35fZmG8ZsG55CJFDZumYahGW3G0Dsvn2Uiha3G
emkvk1YYlqEp+VENOrJEBWnPisQCNyy8/hDNSl3yldZ7jaOQGntKkBwz6FFZV2uc
lIcJ/gICvvYDK/T9oAXW3xFnAcZlwFck8mX8vf9U7L2ZeJccR7S0YsuNVQcvEaEH
W+//DgRZB81cpdHOOpcbagQ1sdpsUd5NN8yPaTl5iE6bBJ3Jbo+cIwDas/s785Q+
Rr22wKDrrv5YivmiPEDShKt+4abZGuzg7opuOggReNKWCvBdhJpajIQ=
=57Bk
-----END PGP PUBLIC KEY BLOCK-----
